assets/img/braze_icons/fingerprint-03.svg

<svg fill="none" height="24" viewBox="0 0 24 24" width="24" xmlns="http://www.w3.org/2000/svg"><g clip-rule="evenodd" fill="#801ed7" fill-rule="evenodd"><path d="m1.8418 14.2187c0-5.61354 4.54875-10.16403 10.1599-10.16403 5.6112 0 10.1599 4.55049 10.1599 10.16403 0 2.2392-1.8149 4.0546-4.0536 4.0546s-4.0537-1.8154-4.0537-4.0546c0-1.1352-.9199-2.0547-2.0536-2.0547s-2.05365.9195-2.05365 2.0547c0 2.9241 1.53745 5.4896 3.85155 6.9327.4686.2922.6116.909.3193 1.3777-.2922.4686-.909.6116-1.3777.3193-2.87471-1.7927-4.79315-4.9863-4.79315-8.6297 0-2.2393 1.81498-4.0547 4.05365-4.0547 2.2387 0 4.0536 1.8154 4.0536 4.0547 0 1.1351.92 2.0546 2.0537 2.0546s2.0536-.9195 2.0536-2.0546c0-4.5097-3.654-8.16403-8.1599-8.16403-4.50586 0-8.1599 3.65433-8.1599 8.16403 0 1.0532.11784 2.0801.33521 3.0716.11827.5395-.22318 1.0727-.76265 1.191-.53948.1182-1.07268-.2232-1.19095-.7627-.24694-1.1264-.38161-2.2968-.38161-3.4999z"/><path d="m11.9988 9.10933c-2.81967 0-5.10632 2.28677-5.10632 5.10937 0 2.3929.75016 4.607 2.02646 6.4284.31694.4523.2072 1.0759-.24509 1.3928-.4523.317-1.07588.2072-1.39282-.2451-1.50344-2.1455-2.38855-4.7579-2.38855-7.5761 0-3.9263 3.18121-7.10937 7.10632-7.10937 3.925 0 7.1062 3.18307 7.1062 7.10937 0 .5522-.4477 1-1 1s-1-.4478-1-1c0-2.8226-2.2866-5.10937-5.1062-5.10937z"/><path d="m12.0008 13.2187c.5523 0 1 .4477 1 1 0 2.8225 2.2867 5.1093 5.1063 5.1093.0457 0 .0776-.0022.1324-.0059.0347-.0024.0786-.0054.141-.0089.5514-.0306 1.0233.3916 1.0539.943.0307.5515-.3915 1.0233-.943 1.054-.0122.0006-.0297.0018-.0509.0032-.0808.0055-.2167.0146-.3334.0146-3.9251 0-7.1063-3.1831-7.1063-7.1093 0-.5523.4477-1 1-1z"/><path d="m2.72362 5.20237c2.26291-2.57054 5.57638-4.20237 9.27618-4.20237s7.0132 1.63183 9.2761 4.20237c.365.41454.3248 1.04642-.0898 1.41136-.4145.36493-1.0464.32471-1.4113-.08983-1.9017-2.16013-4.6771-3.5239-7.775-3.5239s-5.87338 1.36377-7.775 3.5239c-.36493.41454-.99682.45476-1.41136.08983-.41454-.36494-.45476-.99682-.08982-1.41136z"/></g></svg>

<svg width="24" height="24" viewBox="0 0 24 24" fill="none" xmlns="http://www.w3.org/2000/svg">
<path fill-rule="evenodd" clip-rule="evenodd" d="M1.8418 14.2187C1.8418 8.60516 6.39055 4.05467 12.0017 4.05467C17.6129 4.05467 22.1616 8.60516 22.1616 14.2187C22.1616 16.4579 20.3467 18.2733 18.108 18.2733C15.8693 18.2733 14.0543 16.4579 14.0543 14.2187C14.0543 13.0835 13.1344 12.164 12.0007 12.164C10.867 12.164 9.94705 13.0835 9.94705 14.2187C9.94705 17.1428 11.4845 19.7083 13.7986 21.1514C14.2672 21.4436 14.4102 22.0604 14.1179 22.5291C13.8257 22.9977 13.2089 23.1407 12.7402 22.8484C9.86549 21.0557 7.94705 17.8621 7.94705 14.2187C7.94705 11.9794 9.76203 10.164 12.0007 10.164C14.2394 10.164 16.0543 11.9794 16.0543 14.2187C16.0543 15.3538 16.9743 16.2733 18.108 16.2733C19.2417 16.2733 20.1616 15.3538 20.1616 14.2187C20.1616 9.709 16.5076 6.05467 12.0017 6.05467C7.49584 6.05467 3.8418 9.709 3.8418 14.2187C3.8418 15.2719 3.95964 16.2988 4.17701 17.2903C4.29528 17.8298 3.95383 18.363 3.41436 18.4813C2.87488 18.5995 2.34168 18.2581 2.22341 17.7186C1.97647 16.5922 1.8418 15.4218 1.8418 14.2187Z" fill="#801ED7"/>
<path fill-rule="evenodd" clip-rule="evenodd" d="M11.9988 9.10933C9.17913 9.10933 6.89248 11.3961 6.89248 14.2187C6.89248 16.6116 7.64264 18.8257 8.91894 20.6471C9.23588 21.0994 9.12614 21.723 8.67385 22.0399C8.22155 22.3569 7.59797 22.2471 7.28103 21.7948C5.77759 19.6493 4.89248 17.0369 4.89248 14.2187C4.89248 10.2924 8.07369 7.10933 11.9988 7.10933C15.9238 7.10933 19.105 10.2924 19.105 14.2187C19.105 14.7709 18.6573 15.2187 18.105 15.2187C17.5527 15.2187 17.105 14.7709 17.105 14.2187C17.105 11.3961 14.8184 9.10933 11.9988 9.10933Z" fill="#801ED7"/>
<path fill-rule="evenodd" clip-rule="evenodd" d="M12.0008 13.2187C12.5531 13.2187 13.0008 13.6664 13.0008 14.2187C13.0008 17.0412 15.2875 19.328 18.1071 19.328C18.1528 19.328 18.1847 19.3258 18.2395 19.3221C18.2742 19.3197 18.3181 19.3167 18.3805 19.3132C18.9319 19.2826 19.4038 19.7048 19.4344 20.2562C19.4651 20.8077 19.0429 21.2795 18.4914 21.3102C18.4792 21.3108 18.4617 21.312 18.4405 21.3134C18.3597 21.3189 18.2238 21.328 18.1071 21.328C14.182 21.328 11.0008 18.1449 11.0008 14.2187C11.0008 13.6664 11.4485 13.2187 12.0008 13.2187Z" fill="#801ED7"/>
<path fill-rule="evenodd" clip-rule="evenodd" d="M2.72362 5.20237C4.98653 2.63183 8.3 1 11.9998 1C15.6996 1 19.013 2.63183 21.2759 5.20237C21.6409 5.61691 21.6007 6.24879 21.1861 6.61373C20.7716 6.97866 20.1397 6.93844 19.7748 6.5239C17.8731 4.36377 15.0977 3 11.9998 3C8.9019 3 6.12642 4.36377 4.2248 6.5239C3.85987 6.93844 3.22798 6.97866 2.81344 6.61373C2.3989 6.24879 2.35868 5.61691 2.72362 5.20237Z" fill="#801ED7"/>
</svg>
